zhb/img/logotype.svg

<svg width="88" height="40" viewBox="0 0 88 40" fill="none" xmlns="http://www.w3.org/2000/svg">
<path fill-rule="evenodd" clip-rule="evenodd" d="M44.3118 9.38155L45.6588 6.14483L48.1079 6.14483C48.6972 6.14483 49.0095 5.88688 49.1733 5.64372C49.3447 5.38905 49.3447 5.04566 49.1733 4.791C49.0095 4.54619 48.6957 4.28824 48.1079 4.28824H45.6588L44.3118 1.05152C44.3118 1.05152 43.9291 0 43.179 0C42.429 0 42.3065 0.575051 42.3372 1.23225C42.3678 1.88945 42.6127 4.25538 42.6127 4.25538H40.4391C40.4391 4.25538 39.9799 3.45031 39.8115 3.13814C39.6431 2.82597 39.4747 2.64523 39.0767 2.64523C38.6788 2.64523 38.6635 2.89169 38.7247 3.38459C38.7828 3.85449 38.9528 5.10481 38.9681 5.21654C38.9528 5.32826 38.7828 6.57858 38.7247 7.04848C38.6635 7.54138 38.6788 7.78784 39.0767 7.78784C39.4747 7.78784 39.6431 7.6071 39.8115 7.29493C39.9799 6.98276 40.4391 6.17769 40.4391 6.17769L42.6127 6.17769C42.6127 6.17769 42.3678 8.54362 42.3372 9.20082C42.3065 9.85802 42.429 10.4331 43.179 10.4331C43.9291 10.4331 44.3118 9.38155 44.3118 9.38155ZM7.57183 24.49C9.84343 21.4844 12.3904 18.855 15.1437 16.6017C15.3787 16.4094 15.517 16.1228 15.517 15.8191V14.9478C15.517 14.3955 15.9648 13.9478 16.517 13.9478H18.4361C18.6329 13.9478 18.8253 13.8893 18.9899 13.7816C24.6064 10.1072 30.8691 7.81888 37.2907 6.91628C37.7427 6.85275 38.1008 6.49852 38.1614 6.04614L38.2416 5.45016L38.2549 5.35174C38.267 5.262 38.2668 5.17112 38.2545 5.08141L38.2298 4.9003C38.1564 4.36053 37.666 3.97561 37.1259 4.04696C28.3825 5.20219 19.9004 8.71231 12.7454 14.5773H0.399942V17.6065H8.56345L0 28.6195V31.0147H13.5274V27.9855H4.74188L7.57183 24.49ZM68.7645 13.9478C68.5678 13.9478 68.3754 13.8894 68.2108 13.7817C62.614 10.1212 56.3759 7.83606 49.9786 6.92645C49.7005 6.8869 49.5752 6.30887 49.732 6.0758C50.078 5.56154 50.078 4.87148 49.732 4.35722C49.6453 4.2283 49.7501 4.0072 49.9042 4.02707C58.7014 5.16149 67.2405 8.67824 74.4371 14.5773H80.6599C82.4008 14.5773 83.7888 15.0235 84.8005 15.9393C85.8121 16.8316 86.3297 18.0057 86.3297 19.4381C86.3297 21.5557 85.1351 23.2317 83.1106 23.9309L85.1487 27.0751L88 31.0147H86.0367C85.9855 31.023 85.9325 31.0275 85.878 31.0279L84.9243 31.0347C84.8544 31.0352 84.7854 31.0283 84.7182 31.0147H84.0712L79.2719 24.3693H76.4252V31.0147H73.0375V17.4264C72.4419 16.9103 71.8359 16.4124 71.2202 15.9327C70.9739 15.7408 70.8277 15.4471 70.8277 15.1349V14.9478C70.8277 14.3955 70.38 13.9478 69.8277 13.9478H68.7645ZM76.4252 20.6789V21.528H80.4717C82.0009 21.528 82.9184 20.8235 82.9184 19.532C82.9184 18.2875 82.0009 17.536 80.4717 17.536H77.7274C78.3429 18.1424 78.9457 18.7686 79.5352 19.4147C80.1072 20.0416 79.6522 21.0266 78.8035 21.0266H77.1391C76.8873 21.0266 76.647 20.9205 76.4749 20.7366C76.4575 20.718 76.4409 20.6987 76.4252 20.6789ZM19.4942 23.8057V31.0147H16.1065V14.5773H19.4942V20.7296H26.9284V14.5773H30.2926V31.0147H26.9284V23.8057H19.4942ZM37.4166 31.0147V14.5773H34.0524V31.0147H37.4166ZM53.594 29.7232C52.5589 30.592 51.1708 31.0147 49.4299 31.0147H41.1488V14.5773H48.8888C51.9001 14.5773 53.8763 16.0567 53.8763 18.6866C53.8763 20.3539 52.9353 21.481 51.806 21.9506C52.7235 22.1385 53.4999 22.6316 54.1586 23.4065C54.8174 24.1814 55.1467 25.1442 55.1467 26.3418C55.1467 27.7272 54.6291 28.8544 53.594 29.7232ZM48.7947 23.8057H44.5365V28.1029H48.7947C50.465 28.1029 51.4767 27.3515 51.4767 25.9661C51.4767 24.5806 50.465 23.8057 48.7947 23.8057ZM48.3477 17.3951H44.5365V21.0114H48.3477C49.7593 21.0114 50.6062 20.3539 50.6062 19.2267C50.6062 18.0761 49.7593 17.3951 48.3477 17.3951ZM70.3403 31.0147V27.9855H61.3769V23.7588H68.3876V20.7765H61.3769V17.6065H70.0815V14.5773H57.9891V31.0147H70.3403Z" fill="#2D5B75"/>
<path d="M20.3131 38.874C20.669 38.874 20.9827 38.8017 21.2663 38.6512V37.9286C21.031 38.0671 20.7595 38.1334 20.4518 38.1334C20.1924 38.1334 19.9692 38.0551 19.7882 37.8985C19.6073 37.742 19.5168 37.5372 19.5168 37.2904C19.5168 37.0435 19.6073 36.8387 19.7822 36.6882C19.9632 36.5317 20.1864 36.4534 20.4518 36.4534C20.6992 36.4534 20.9586 36.5136 21.218 36.634V35.9114C20.9526 35.779 20.657 35.7127 20.3252 35.7127C19.8727 35.7127 19.4866 35.8573 19.1608 36.1463C18.8411 36.4293 18.6782 36.8086 18.6782 37.2843C18.6782 37.76 18.8411 38.1454 19.1608 38.4405C19.4806 38.7295 19.8667 38.874 20.3131 38.874Z" fill="#2D5B75"/>
<path d="M23.401 38.874C23.8957 38.874 24.2757 38.7716 24.5472 38.5669V37.8865C24.2395 38.0611 23.9198 38.1514 23.582 38.1514C23.0511 38.1514 22.665 37.9346 22.5745 37.5252H24.7342V37.3024C24.7342 36.8568 24.6015 36.4835 24.3421 36.1764C24.0827 35.8693 23.7388 35.7127 23.2984 35.7127C22.8339 35.7127 22.4539 35.8633 22.1643 36.1704C21.8747 36.4714 21.7299 36.8448 21.7299 37.2904C21.7299 37.766 21.8928 38.1514 22.2125 38.4405C22.5323 38.7295 22.9304 38.874 23.401 38.874ZM22.5745 36.9833C22.6167 36.628 22.8761 36.3811 23.2622 36.3811C23.6423 36.3811 23.8776 36.6521 23.8957 36.9833H22.5745Z" fill="#2D5B75"/>
<path d="M27.2272 35.7127C26.7928 35.7127 26.461 35.8633 26.2378 36.1583V35.791H25.3872V40H26.2378V38.4284C26.4731 38.7235 26.7989 38.874 27.2272 38.874C27.6374 38.874 27.9753 38.7235 28.2407 38.4224C28.5122 38.1153 28.6449 37.742 28.6449 37.2964C28.6449 36.8448 28.5122 36.4714 28.2407 36.1704C27.9753 35.8633 27.6374 35.7127 27.2272 35.7127ZM26.9859 36.4534C27.2212 36.4534 27.4202 36.5317 27.5711 36.6942C27.7219 36.8568 27.8003 37.0555 27.8003 37.2964C27.8003 37.5312 27.7219 37.7299 27.5711 37.8925C27.4202 38.0551 27.2212 38.1334 26.9859 38.1334C26.6541 38.1334 26.3766 37.9467 26.2378 37.6878V36.905C26.3766 36.6461 26.6541 36.4534 26.9859 36.4534Z" fill="#2D5B75"/>
<path d="M31.0432 38.7957C31.743 38.7957 32.1412 38.4766 32.1412 37.9708C32.1412 37.5914 31.9481 37.3325 31.5681 37.2C31.8154 37.0736 31.9361 36.8628 31.9361 36.5618C31.9361 36.1222 31.5982 35.791 30.9708 35.791H29.2696V38.7957H31.0432ZM30.1082 37.5252H30.8321C31.1277 37.5252 31.2725 37.6396 31.2725 37.8624C31.2725 38.0852 31.1277 38.1996 30.8321 38.1996H30.1082V37.5252ZM30.1082 36.3751H30.6994C30.9708 36.3751 31.1036 36.4775 31.1036 36.6822C31.1036 36.8869 30.9708 36.9893 30.6994 36.9893H30.1082V36.3751Z" fill="#2D5B75"/>
<path d="M33.5948 38.7957L34.9582 37.0254V38.7957H35.7968V35.791H35.0005L33.6371 37.5613V35.791H32.7985V38.7957H33.5948Z" fill="#2D5B75"/>
<path d="M38.0637 38.874C38.4196 38.874 38.7333 38.8017 39.0168 38.6512V37.9286C38.7816 38.0671 38.5101 38.1334 38.2024 38.1334C37.943 38.1334 37.7198 38.0551 37.5388 37.8985C37.3578 37.742 37.2673 37.5372 37.2673 37.2904C37.2673 37.0435 37.3578 36.8387 37.5328 36.6882C37.7138 36.5317 37.937 36.4534 38.2024 36.4534C38.4498 36.4534 38.7092 36.5136 38.9686 36.634V35.9114C38.7031 35.779 38.4075 35.7127 38.0757 35.7127C37.6233 35.7127 37.2372 35.8573 36.9114 36.1463C36.5917 36.4293 36.4288 36.8086 36.4288 37.2843C36.4288 37.76 36.5917 38.1454 36.9114 38.4405C37.2311 38.7295 37.6172 38.874 38.0637 38.874Z" fill="#2D5B75"/>
<path d="M41.8008 39.5604V38.7957H43.9726V39.5604H44.775V38.0852H44.2803V35.791H41.7465L41.7345 36.3751C41.7224 37.1639 41.6018 37.7299 41.3725 38.0852H40.9864V39.5604H41.8008ZM42.2412 38.0852C42.4162 37.6577 42.5067 37.1278 42.5067 36.5015H43.4478V38.0852H42.2412Z" fill="#2D5B75"/>
<path d="M46.2336 37.8925C46.0767 37.7299 45.9983 37.5312 45.9983 37.2904C45.9983 37.0495 46.0767 36.8508 46.2336 36.6942C46.3904 36.5317 46.5895 36.4534 46.8308 36.4534C47.0721 36.4534 47.2712 36.5317 47.428 36.6942C47.5849 36.8508 47.6633 37.0495 47.6633 37.2904C47.6633 37.5312 47.5849 37.7299 47.428 37.8925C47.2712 38.0551 47.0721 38.1334 46.8308 38.1334C46.5895 38.1334 46.3904 38.0551 46.2336 37.8925ZM45.1597 37.2904C45.1597 37.742 45.3166 38.1153 45.6303 38.4224C45.944 38.7235 46.3422 38.874 46.8308 38.874C47.3195 38.874 47.7176 38.7235 48.0313 38.4224C48.345 38.1153 48.5019 37.742 48.5019 37.2904C48.5019 36.8508 48.345 36.4775 48.0313 36.1704C47.7176 35.8633 47.3195 35.7127 46.8308 35.7127C46.3422 35.7127 45.944 35.8633 45.6303 36.1704C45.3166 36.4714 45.1597 36.8448 45.1597 37.2904Z" fill="#2D5B75"/>
<path d="M50.5651 38.874C50.921 38.874 51.2347 38.8017 51.5182 38.6512V37.9286C51.283 38.0671 51.0115 38.1334 50.7038 38.1334C50.4444 38.1334 50.2212 38.0551 50.0402 37.8985C49.8592 37.742 49.7687 37.5372 49.7687 37.2904C49.7687 37.0435 49.8592 36.8387 50.0342 36.6882C50.2152 36.5317 50.4384 36.4534 50.7038 36.4534C50.9512 36.4534 51.2106 36.5136 51.47 36.634V35.9114C51.2045 35.779 50.9089 35.7127 50.5771 35.7127C50.1247 35.7127 49.7386 35.8573 49.4128 36.1463C49.0931 36.4293 48.9302 36.8086 48.9302 37.2843C48.9302 37.76 49.0931 38.1454 49.4128 38.4405C49.7325 38.7295 50.1186 38.874 50.5651 38.874Z" fill="#2D5B75"/>
<path d="M53.7058 38.7957V36.5015H54.659V35.791H51.9141V36.5015H52.8552V38.7957H53.7058Z" fill="#2D5B75"/>
<path d="M58.0275 38.1394C57.8888 38.1394 57.8164 38.0611 57.8164 37.9106V36.8929C57.8164 36.5256 57.6837 36.2366 57.4182 36.0259C57.1588 35.8151 56.8089 35.7127 56.3806 35.7127C55.9402 35.7127 55.5722 35.791 55.2645 35.9536V36.6641C55.5481 36.4955 55.8558 36.4112 56.1755 36.4112C56.7064 36.4112 56.9718 36.5979 56.9718 36.9772V37.0676C56.7305 36.9411 56.4409 36.8809 56.1031 36.8809C55.7773 36.8809 55.4998 36.9652 55.2645 37.1338C55.0293 37.3024 54.9146 37.5493 54.9146 37.8684C54.9146 38.4766 55.3731 38.874 56.0247 38.874C56.453 38.874 56.7969 38.7355 57.0623 38.4645C57.1769 38.7235 57.4001 38.8499 57.744 38.8499C57.9431 38.8499 58.0939 38.8078 58.2025 38.7235V38.1033C58.1603 38.1273 58.0999 38.1394 58.0275 38.1394ZM56.9718 37.9106C56.815 38.1153 56.5857 38.2177 56.2901 38.2177C55.9764 38.2177 55.7532 38.0912 55.7532 37.8263C55.7532 37.5794 55.9824 37.4349 56.3444 37.4349C56.5917 37.4349 56.7969 37.4951 56.9718 37.6095V37.9106Z" fill="#2D5B75"/>
<path d="M60.5647 38.7957C61.2645 38.7957 61.6626 38.4766 61.6626 37.9708C61.6626 37.5914 61.4696 37.3325 61.0895 37.2C61.3369 37.0736 61.4575 36.8628 61.4575 36.5618C61.4575 36.1222 61.1197 35.791 60.4923 35.791H58.791V38.7957H60.5647ZM59.6296 37.5252H60.3535C60.6491 37.5252 60.7939 37.6396 60.7939 37.8624C60.7939 38.0852 60.6491 38.1996 60.3535 38.1996H59.6296V37.5252ZM59.6296 36.3751H60.2208C60.4923 36.3751 60.625 36.4775 60.625 36.6822C60.625 36.8869 60.4923 36.9893 60.2208 36.9893H59.6296V36.3751Z" fill="#2D5B75"/>
<path d="M63.1706 38.7957V37.5011L64.359 38.7957H65.457L63.9428 37.1458L65.2519 35.791H64.2082L63.1706 36.8869V35.791H62.32V38.7957H63.1706Z" fill="#2D5B75"/>
<path d="M66.7277 38.7957L68.091 37.0254V38.7957H68.9296V35.791H68.1333L66.7699 37.5613V35.791H65.9313V38.7957H66.7277Z" fill="#2D5B75"/>
</svg>

<svg width="88" height="40" fill="none" xmlns="http://www.w3.org/2000/svg"><path fill-rule="evenodd" clip-rule="evenodd" d="M44.312 9.382l1.347-3.237h2.449c.59 0 .902-.258 1.065-.501a.771.771 0 000-.853c-.163-.245-.477-.503-1.065-.503h-2.45l-1.346-3.236S43.929 0 43.179 0s-.873.575-.842 1.232c.03.657.276 3.023.276 3.023h-2.174s-.46-.805-.627-1.117c-.169-.312-.337-.493-.735-.493-.398 0-.413.247-.352.74.058.47.228 1.72.243 1.832-.015.111-.185 1.362-.243 1.831-.062.493-.046.74.352.74.398 0 .566-.18.735-.493.168-.312.627-1.117.627-1.117h2.174s-.245 2.366-.276 3.023c-.03.657.092 1.232.842 1.232s1.133-1.051 1.133-1.051zM7.572 24.49a46.042 46.042 0 017.572-7.888c.235-.193.373-.48.373-.783v-.871a1 1 0 011-1h1.92c.196 0 .388-.059.553-.166a44.787 44.787 0 0118.3-6.866c.453-.063.81-.417.871-.87l.08-.596.014-.098c.012-.09.012-.18 0-.27L38.23 4.9a.988.988 0 00-1.104-.853c-8.743 1.155-17.226 4.665-24.38 10.53H.4v3.03h8.163L0 28.619v2.396h13.527v-3.03H4.742l2.83-3.495zm61.192-10.542c-.196 0-.389-.059-.553-.166a44.805 44.805 0 00-18.232-6.856c-.279-.04-.404-.617-.247-.85a1.552 1.552 0 000-1.719c-.087-.129.018-.35.172-.33 8.797 1.134 17.336 4.651 24.533 10.55h6.223c1.74 0 3.129.447 4.14 1.362 1.012.893 1.53 2.067 1.53 3.5 0 2.117-1.195 3.793-3.22 4.492l2.039 3.144L88 31.015h-1.963a1.039 1.039 0 01-.159.013l-.954.007c-.07 0-.139-.007-.206-.02h-.647l-4.8-6.646h-2.846v6.646h-3.388V17.426a45.126 45.126 0 00-1.817-1.493 1.013 1.013 0 01-.392-.798v-.187a1 1 0 00-1-1h-1.064zm7.661 6.73v.85h4.047c1.529 0 2.446-.704 2.446-1.996 0-1.244-.917-1.996-2.446-1.996h-2.745a48.988 48.988 0 011.808 1.879c.572.627.117 1.612-.731 1.612h-1.665a.911.911 0 01-.714-.348zm-56.93 3.128v7.209h-3.389V14.577h3.388v6.153h7.434v-6.153h3.365v16.438h-3.365v-7.21h-7.434zm17.922 7.209V14.577h-3.365v16.438h3.365zm16.177-1.292c-1.035.869-2.423 1.292-4.164 1.292h-8.281V14.577h7.74c3.011 0 4.987 1.48 4.987 4.11 0 1.667-.94 2.794-2.07 3.264.918.188 1.694.68 2.353 1.456.658.774.988 1.737.988 2.935 0 1.385-.518 2.512-1.553 3.381zm-4.8-5.917h-4.258v4.297h4.259c1.67 0 2.682-.752 2.682-2.137s-1.012-2.16-2.682-2.16zm-.446-6.41h-3.812v3.615h3.812c1.411 0 2.258-.657 2.258-1.784 0-1.15-.847-1.832-2.258-1.832zM70.34 31.014v-3.03h-8.963V23.76h7.01v-2.983h-7.01v-3.17h8.705v-3.029H57.989v16.438H70.34z" fill="#2D5B75"/><path d="M20.313 38.874c.356 0 .67-.072.953-.223v-.722a1.574 1.574 0 01-.814.204.983.983 0 01-.664-.235.77.77 0 01-.271-.608c0-.246.09-.451.265-.602a.988.988 0 01.67-.235c.247 0 .507.06.766.181v-.723a1.966 1.966 0 00-.893-.198c-.452 0-.838.144-1.164.433-.32.283-.483.663-.483 1.138 0 .476.163.861.483 1.157.32.288.706.433 1.152.433zm3.088 0c.495 0 .875-.102 1.146-.307v-.68a1.926 1.926 0 01-.965.264c-.53 0-.917-.216-1.008-.626h2.16v-.223c0-.445-.133-.819-.392-1.126-.26-.307-.603-.463-1.044-.463-.464 0-.844.15-1.134.457-.29.301-.434.675-.434 1.12 0 .476.163.861.482 1.15.32.29.718.434 1.189.434zm-.826-1.89c.042-.356.301-.603.687-.603.38 0 .616.271.634.602h-1.322zm4.652-1.271c-.434 0-.766.15-.99.445v-.367h-.85V40h.85v-1.572c.236.296.562.446.99.446.41 0 .748-.15 1.014-.452.271-.307.404-.68.404-1.126 0-.451-.133-.825-.404-1.126a1.278 1.278 0 00-1.014-.457zm-.241.74c.235 0 .434.079.585.241.15.163.23.361.23.602a.847.847 0 01-.23.596.766.766 0 01-.585.241.847.847 0 01-.748-.445v-.783a.852.852 0 01.748-.452zm4.057 2.343c.7 0 1.098-.32 1.098-.825 0-.38-.193-.638-.573-.771.247-.126.368-.337.368-.638 0-.44-.338-.771-.965-.771H29.27v3.005h1.773zm-.935-1.27h.724c.296 0 .44.114.44.336 0 .223-.144.338-.44.338h-.724v-.675zm0-1.15h.591c.272 0 .405.102.405.306 0 .205-.133.307-.405.307h-.59v-.614zm3.487 2.42l1.363-1.77v1.77h.839V35.79H35l-1.364 1.77v-1.77h-.839v3.005h.797zm4.469.078c.356 0 .67-.072.953-.223v-.722a1.573 1.573 0 01-.815.204.983.983 0 01-.663-.235.77.77 0 01-.272-.608c0-.246.09-.451.266-.602a.988.988 0 01.67-.235c.247 0 .506.06.766.181v-.723a1.967 1.967 0 00-.893-.198c-.453 0-.839.144-1.165.433-.32.283-.482.663-.482 1.138 0 .476.163.861.482 1.157.32.288.706.433 1.153.433zm3.736.686v-.764h2.173v.764h.802v-1.475h-.495v-2.294h-2.534l-.012.584c-.012.789-.132 1.355-.361 1.71h-.387v1.475h.815zm.441-1.475c.175-.427.266-.957.266-1.584h.94v1.584h-1.206zm3.993-.193a.83.83 0 01-.236-.602c0-.24.079-.44.236-.596a.792.792 0 01.597-.24c.241 0 .44.078.597.24a.807.807 0 01.235.596.83.83 0 01-.235.602.792.792 0 01-.597.241.792.792 0 01-.597-.24zm-1.074-.602c0 .452.157.825.47 1.132.314.302.712.452 1.2.452.49 0 .888-.15 1.201-.452.314-.307.47-.68.47-1.132 0-.44-.156-.813-.47-1.12-.313-.307-.712-.457-1.2-.457-.489 0-.887.15-1.2.457a1.49 1.49 0 00-.471 1.12zm5.405 1.584c.356 0 .67-.072.953-.223v-.722a1.573 1.573 0 01-.814.204.983.983 0 01-.664-.235.77.77 0 01-.271-.608c0-.246.09-.451.265-.602a.988.988 0 01.67-.235c.247 0 .507.06.766.181v-.723a1.967 1.967 0 00-.893-.198c-.452 0-.838.144-1.164.433-.32.283-.483.663-.483 1.138 0 .476.163.861.483 1.157.32.288.706.433 1.152.433zm3.141-.078v-2.294h.953v-.711h-2.745v.71h.941v2.295h.85zm4.322-.656c-.14 0-.212-.079-.212-.23v-1.017c0-.367-.132-.656-.398-.867-.26-.21-.61-.313-1.037-.313-.44 0-.809.078-1.117.24v.711c.284-.169.592-.253.911-.253.531 0 .797.187.797.566v.09c-.242-.126-.531-.186-.869-.186-.326 0-.603.084-.839.253-.235.168-.35.415-.35.734 0 .609.46 1.006 1.11 1.006.429 0 .773-.139 1.038-.41.115.26.338.386.682.386.2 0 .35-.042.459-.127v-.62a.361.361 0 01-.175.036zm-1.056-.23c-.157.205-.386.308-.682.308-.314 0-.537-.127-.537-.392 0-.247.23-.391.591-.391.248 0 .453.06.628.174v.302zm3.593.886c.7 0 1.098-.32 1.098-.825 0-.38-.193-.638-.573-.771.247-.126.367-.337.367-.638 0-.44-.337-.771-.965-.771h-1.701v3.005h1.774zm-.935-1.27h.723c.296 0 .44.114.44.336 0 .223-.144.338-.44.338h-.723v-.675zm0-1.15h.59c.272 0 .405.102.405.306 0 .205-.133.307-.404.307h-.591v-.614zm3.54 2.42V37.5l1.189 1.295h1.098l-1.514-1.65 1.309-1.355h-1.044l-1.037 1.096V35.79h-.851v3.005h.85zm3.558 0l1.363-1.77v1.77h.839V35.79h-.797l-1.363 1.77v-1.77h-.839v3.005h.797z" fill="#2D5B75"/></svg>
